build/system/PersonLimitSolid.svg

<svg xmlns="http://www.w3.org/2000/svg" fill="none" viewBox="0 0 24 24" focusable="false"><path d="M0 0H24V24H0z"/><path fill="#74767B" d="M7.56456 7.96802C7.26365 5.32002 9.33497 3 12 3 14.6651 3 16.7364 5.32002 16.4355 7.96803L16.1734 10.274C15.9322 12.3966 14.1363 14 12 14 9.86377 14 8.06781 12.3966 7.8266 10.274L7.56456 7.96802ZM11.1541 15C11.6692 15 12.0139 15.5434 11.8848 16.042 11.7642 16.5078 11.7 16.9964 11.7 17.5 11.7 18.3115 11.8667 19.0841 12.1677 19.7854 12.3958 20.317 12.0443 21 11.4658 21L4.87265 21C4.42482 21 4.09217 20.5853 4.18932 20.1481L4.28926 19.6984C4.89931 16.9532 7.33419 15 10.1464 15L11.1541 15Z"/><path fill="#74767B" d="M11.1541 15C11.6692 15 12.0139 15.5434 11.8848 16.042C11.7642 16.5078 11.7 16.9964 11.7 17.5C11.7 18.3115 11.8667 19.0841 12.1677 19.7854C12.3958 20.317 12.0443 21 11.4658 21L4.87265 21C4.42482 21 4.09217 20.5853 4.18932 20.1481L4.28926 19.6984C4.89931 16.9532 7.33419 15 10.1464 15L11.1541 15Z"/><path fill="#74767B" fill-rule="evenodd" d="M14.318 14.318C12.5607 16.0754 12.5607 18.9246 14.318 20.682C16.0754 22.4393 18.9246 22.4393 20.682 20.682C22.4394 18.9246 22.4394 16.0754 20.682 14.318C18.9246 12.5607 16.0754 12.5607 14.318 14.318ZM19.7628 15.2373C18.5131 13.9876 16.487 13.9876 15.2373 15.2373C13.9876 16.4869 13.9876 18.5131 15.2373 19.7627C16.487 21.0124 18.5131 21.0124 19.7628 19.7627C21.0124 18.5131 21.0124 16.4869 19.7628 15.2373Z"/><path fill="#74767B" fill-rule="evenodd" d="M14.318 14.318C12.5607 16.0754 12.5607 18.9246 14.318 20.682C16.0754 22.4393 18.9246 22.4393 20.682 20.682C22.4394 18.9246 22.4394 16.0754 20.682 14.318C18.9246 12.5607 16.0754 12.5607 14.318 14.318ZM19.7628 15.2373C18.5131 13.9876 16.487 13.9876 15.2373 15.2373C13.9876 16.4869 13.9876 18.5131 15.2373 19.7627C16.487 21.0124 18.5131 21.0124 19.7628 19.7627C21.0124 18.5131 21.0124 16.4869 19.7628 15.2373Z"/><path fill="#74767B" fill-rule="evenodd" d="M20.4347 19.5155L15.4845 14.5654L14.5653 15.4847L19.5154 20.4348L20.4347 19.5155Z"/><path fill="#74767B" fill-rule="evenodd" d="M20.4347 19.5155L15.4845 14.5654L14.5653 15.4847L19.5154 20.4348L20.4347 19.5155Z"/></svg>

<svg xmlns="http://www.w3.org/2000/svg" fill="none" viewBox="0 0 24 24" focusable="false"><g fill="#74767B"><path d="M7.56 7.96C7.26 5.32 9.33 3 12 3a4.46 4.46 0 0 1 4.43 4.96l-.26 2.31A4.206 4.206 0 0 1 12 14c-2.14 0-3.94-1.61-4.18-3.73zM11.15 15c.51 0 .86.54.73 1.04-.12.46-.18.95-.18 1.46 0 .81.16 1.58.46 2.28.23.53-.12 1.22-.7 1.22H4.87c-.45 0-.78-.42-.69-.86l.1-.45A6 6 0 0 1 10.14 15z"/><path fill-rule="evenodd" d="M14.31 14.31a4.52 4.52 0 0 0 0 6.37 4.52 4.52 0 0 0 6.37 0 4.52 4.52 0 0 0 0-6.37 4.52 4.52 0 0 0-6.37 0m5.45.92a3.205 3.205 0 0 0-4.53 0 3.205 3.205 0 0 0 0 4.53 3.205 3.205 0 0 0 4.53 0 3.205 3.205 0 0 0 0-4.53"/><path fill-rule="evenodd" d="m20.43 19.51-4.95-4.95-.92.92 4.95 4.95z"/></g></svg>
